template/img/search.svg

<svg width="28" height="28" viewBox="0 0 28 28" fill="none" xmlns="http://www.w3.org/2000/svg">
<path fill-rule="evenodd" clip-rule="evenodd" d="M12.6667 3.5C7.60406 3.5 3.5 7.60406 3.5 12.6667C3.5 17.7293 7.60406 21.8333 12.6667 21.8333C15.132 21.8333 17.37 20.8601 19.0175 19.2769C19.0548 19.2292 19.0954 19.1832 19.1393 19.1393C19.1832 19.0954 19.2292 19.0548 19.2769 19.0175C20.8601 17.37 21.8333 15.132 21.8333 12.6667C21.8333 7.60406 17.7293 3.5 12.6667 3.5ZM22.2652 20.1439C23.8745 18.081 24.8333 15.4858 24.8333 12.6667C24.8333 5.9472 19.3861 0.5 12.6667 0.5C5.9472 0.5 0.5 5.9472 0.5 12.6667C0.5 19.3861 5.9472 24.8333 12.6667 24.8333C15.4858 24.8333 18.081 23.8745 20.1439 22.2652L24.9393 27.0607C25.5251 27.6464 26.4749 27.6464 27.0607 27.0607C27.6464 26.4749 27.6464 25.5251 27.0607 24.9393L22.2652 20.1439Z" fill="white"/>
</svg>

<?xml version="1.0" encoding="utf-8"?>
<!-- Generator: Adobe Illustrator 24.1.2, SVG Export Plug-In . SVG Version: 6.00 Build 0)  -->
<svg version="1.1" id="Layer_1" xmlns="http://www.w3.org/2000/svg" xmlns:xlink="http://www.w3.org/1999/xlink" x="0px" y="0px"
	 viewBox="0 0 28 28" style="enable-background:new 0 0 28 28;" xml:space="preserve">
<style type="text/css">
	.st0{fill-rule:evenodd;clip-rule:evenodd;fill:#FFFFFF;}
</style>
<path class="st0" d="M12.7,3.5c-5.1,0-9.2,4.1-9.2,9.2c0,5.1,4.1,9.2,9.2,9.2c2.5,0,4.7-1,6.4-2.6c0,0,0.1-0.1,0.1-0.1
	c0,0,0.1-0.1,0.1-0.1c1.6-1.6,2.6-3.9,2.6-6.4C21.8,7.6,17.7,3.5,12.7,3.5z M22.3,20.1c1.6-2.1,2.6-4.7,2.6-7.5
	c0-6.7-5.4-12.2-12.2-12.2C5.9,0.5,0.5,5.9,0.5,12.7c0,6.7,5.4,12.2,12.2,12.2c2.8,0,5.4-1,7.5-2.6l4.8,4.8c0.6,0.6,1.5,0.6,2.1,0
	c0.6-0.6,0.6-1.5,0-2.1L22.3,20.1z"/>
</svg>
